X:1
T:Title
%%score { 1 | 2 }
L:1/8
Q:1/4=100
M:4/4
K:C
V:1 treble nm="Grand Piano"
V:2 bass 
V:1
 [EG]2 [CE]>[EG] [Ec]3 [Ec] | BA c>A [EG]4 | A2 Bc [EG]3 [FA] | [EG]EDC [B,D]4 | %4
w: Fannie~Birdsall * * * *||||
 E2 C>E [EG]3 [Ge] |[M:7/8] dcc>A [EG]3 |[M:1/8] [EG] |[M:4/4] Ac B>A [EG][CE][EG][Gc] | %8
w: ||||
 c2 [FB]2 [Ec]4 | [EG]4 [FA] [EG]3 | [Ec]4 [GB] [FA]2 [Fc] | %11
w: |||
[M:7/8] [CEG][K:bass][G,CE][^F,CD]>[F,C][K:treble] [G,B,D]3 |[M:1/8] [B,DF] | %13
w: ||
[M:4/4] [CE][EG] [Ge]>d d<c BA | G2 [FB]2 [Ec]4 |] %15
w: ||
V:2
 [C,C]2 [C,G,]>[C,G,] [C,G,]3 [C,G,] | [F,A,F][F,CF] [F,A,F]>[F,CF] [C,C]4 | %2
 [F,CF]2 [F,A,F][F,A,F] [C,C]3 [C,C] | [C,C][C,G,C][D,G,B,][D,^F,A,] [G,,G,]4 | %4
 [C,G,C]2 [C,E,]>[C,G,C] [C,C]3 [C,C] |[M:7/8] [F,A,F][F,A,F][F,A,F]>[F,CF] [C,C]3 |[M:1/8] [C,C] | %7
[M:4/4] [F,CF][F,A,F] [F,B,F]>[F,CF] [C,C][C,G,][C,G,][E,G,] | [G,E]2 [G,,G,]2 [C,G,]4 | %9
 [C,C]4 [C,C] [C,C]3 | [C,G,]4 [F,C] [F,C]2 [F,A,] |[M:7/8] C,C,D,>D, G,,3 |[M:1/8] G,, | %13
[M:4/4] C,[C,C] [C,C]>[F,A,F] [F,A,F]<[F,A,F] [F,B,F][F,CF] | [G,CE]2 [G,,G,]2 [C,G,]4 |] %15

